Sources/FrostedUI/Resources/Icons.xcassets/instagram20.imageset/instagram-20.svg

<svg width="20" height="20" viewBox="0 0 20 20" fill="none" xmlns="http://www.w3.org/2000/svg" data-fui-icon="true">
  <path
    d="M10 2.375C12.2299 2.375 12.5179 2.38419 13.4082 2.4248C14.0216 2.4334 14.6288 2.54672 15.2041 2.75977L15.2051 2.75879C15.6677 2.92951 16.0869 3.20044 16.4326 3.55176L16.5635 3.68652C16.8591 4.0077 17.0897 4.38425 17.2412 4.79492H17.2402C17.4518 5.36595 17.565 5.96842 17.5752 6.57715L17.6006 7.17676C17.6203 7.74085 17.625 8.31813 17.625 10C17.625 12.2421 17.6164 12.5211 17.5752 13.4229C17.565 14.0318 17.452 14.6348 17.2402 15.2061L17.2373 15.2158C17.0601 15.675 16.7886 16.0923 16.4404 16.4404C16.0923 16.7886 15.675 17.0601 15.2158 17.2373L15.2061 17.2402C14.6302 17.4537 14.0221 17.5666 13.4082 17.5752C12.518 17.6158 12.2299 17.625 10 17.625C7.76927 17.625 7.48177 17.6159 6.59082 17.5752C5.97713 17.5666 5.36955 17.4535 4.79395 17.2402V17.2412C4.33151 17.0703 3.91286 16.7986 3.56738 16.4473C3.20861 16.0987 2.93198 15.6744 2.75879 15.2051L2.75977 15.2041C2.54841 14.6334 2.43498 14.0312 2.4248 13.4229C2.38361 12.5211 2.375 12.2421 2.375 10C2.375 7.75791 2.38361 7.47887 2.4248 6.57715C2.43499 5.96841 2.54822 5.36594 2.75977 4.79492H2.75879C2.93204 4.32544 3.20838 3.90039 3.56738 3.55176C3.91308 3.20043 4.33233 2.9295 4.79492 2.75879V2.75977C5.37021 2.54664 5.97743 2.43351 6.59082 2.4248C7.48177 2.38415 7.76925 2.375 10 2.375ZM10 3.875C7.76404 3.875 7.51239 3.88325 6.64551 3.92285C6.63712 3.92323 6.62851 3.92373 6.62012 3.92383C6.17455 3.92923 5.73327 4.01117 5.31543 4.16602H5.31445C5.05533 4.26164 4.82036 4.41416 4.62793 4.6123C4.62282 4.61756 4.61756 4.62282 4.6123 4.62793C4.41416 4.82036 4.26164 5.05533 4.16602 5.31445V5.31543C4.01117 5.73327 3.92923 6.17455 3.92383 6.62012C3.92373 6.62851 3.92323 6.63712 3.92285 6.64551C3.88325 7.51239 3.875 7.76404 3.875 10C3.875 12.2359 3.88325 12.4875 3.92285 13.3545C3.92323 13.3629 3.92373 13.3715 3.92383 13.3799C3.92923 13.8254 4.01117 14.2668 4.16602 14.6846V14.6855C4.23772 14.8798 4.34171 15.0605 4.47266 15.2197L4.6123 15.3721L4.62793 15.3877C4.82019 15.5858 5.05464 15.7383 5.31348 15.834H5.31445C5.73256 15.9889 6.17421 16.0708 6.62012 16.0762C6.62854 16.0763 6.63709 16.0768 6.64551 16.0771C7.51238 16.1168 7.76404 16.125 10 16.125C12.2359 16.125 12.4875 16.1168 13.3545 16.0771L13.3799 16.0762C13.8254 16.0707 14.2668 15.9888 14.6846 15.834C14.9451 15.732 15.1822 15.5776 15.3799 15.3799C15.5778 15.182 15.732 14.9445 15.834 14.6836C15.9886 14.2661 16.0707 13.8251 16.0762 13.3799L16.0771 13.3545C16.1168 12.4875 16.125 12.2359 16.125 10C16.125 7.76404 16.1168 7.51238 16.0771 6.64551C16.0768 6.63713 16.0763 6.6285 16.0762 6.62012C16.0707 6.17453 15.9888 5.73325 15.834 5.31543V5.31445L15.751 5.125C15.6585 4.94075 15.5363 4.77226 15.3877 4.62793C15.3824 4.62283 15.3772 4.61756 15.3721 4.6123C15.1796 4.41413 14.9446 4.26163 14.6855 4.16602H14.6846C14.2668 4.01117 13.8254 3.92923 13.3799 3.92383C13.3715 3.92373 13.3629 3.92323 13.3545 3.92285C12.4875 3.88325 12.2359 3.875 10 3.875ZM9.25586 6.26074C9.99537 6.11364 10.7624 6.18897 11.459 6.47754C12.1556 6.7661 12.751 7.25493 13.1699 7.88184C13.5888 8.50876 13.8125 9.24589 13.8125 10C13.8125 11.0111 13.4112 11.9813 12.6963 12.6963C11.9813 13.4112 11.0111 13.8125 10 13.8125C9.24589 13.8125 8.50876 13.5888 7.88184 13.1699C7.25493 12.751 6.7661 12.1556 6.47754 11.459C6.18897 10.7624 6.11364 9.99537 6.26074 9.25586C6.40789 8.51641 6.77059 7.83679 7.30371 7.30371C7.83679 6.77059 8.51641 6.40789 9.25586 6.26074ZM10.8848 7.86328C10.4624 7.68833 9.99732 7.6432 9.54883 7.73242C9.10023 7.82167 8.68855 8.04189 8.36523 8.36523C8.04189 8.68855 7.82167 9.10023 7.73242 9.54883C7.6432 9.99732 7.68833 10.4624 7.86328 10.8848C8.03828 11.3073 8.33467 11.6687 8.71484 11.9229C9.09516 12.177 9.54265 12.3125 10 12.3125C10.6133 12.3125 11.2011 12.0684 11.6348 11.6348C12.0684 11.2011 12.3125 10.6133 12.3125 10C12.3125 9.54265 12.177 9.09516 11.9229 8.71484C11.6687 8.33467 11.3073 8.03828 10.8848 7.86328ZM14.2256 4.82422C14.4949 4.82422 14.7539 4.93076 14.9443 5.12109C15.1347 5.31141 15.2412 5.56975 15.2412 5.83887C15.2412 6.03947 15.1818 6.23551 15.0703 6.40234C14.9588 6.56924 14.7998 6.69956 14.6143 6.77637C14.4287 6.85314 14.2243 6.87314 14.0273 6.83398C13.8305 6.7948 13.6497 6.6984 13.5078 6.55664C13.3658 6.41476 13.2687 6.2339 13.2295 6.03711C13.1903 5.84024 13.2102 5.63565 13.2871 5.4502C13.3639 5.2649 13.4944 5.10661 13.6611 4.99512C13.8281 4.88365 14.0248 4.82427 14.2256 4.82422Z"
    fill="currentColor"
  />
</svg>

<svg xmlns="http://www.w3.org/2000/svg" width="20" height="20" fill="none" data-fui-icon="true" viewBox="0 0 20 20"><path fill="currentColor" d="M10 2.375c2.23 0 2.518.01 3.408.05.614.008 1.22.122 1.796.335l.001-.001c.463.17.882.441 1.228.793l.13.135c.296.32.527.697.678 1.108.21.57.324 1.173.334 1.782l.026.6c.02.564.024 1.141.024 2.823 0 2.242-.009 2.521-.05 3.423a5.4 5.4 0 0 1-.335 1.783l-.003.01a3.53 3.53 0 0 1-2.021 2.021l-.01.003a5.4 5.4 0 0 1-1.798.335c-.89.04-1.178.05-3.408.05s-2.518-.01-3.41-.05a5.4 5.4 0 0 1-1.796-.335v.001a3.35 3.35 0 0 1-1.227-.794 3.35 3.35 0 0 1-.808-1.242 5.4 5.4 0 0 1-.334-1.782c-.041-.902-.05-1.18-.05-3.423 0-2.242.009-2.521.05-3.423a5.4 5.4 0 0 1 .335-1.782h-.001c.173-.47.45-.895.808-1.243a3.35 3.35 0 0 1 1.228-.793 5.4 5.4 0 0 1 1.796-.334c.89-.04 1.178-.05 3.409-.05m0 1.5c-2.236 0-2.488.008-3.354.048H6.62a3.9 3.9 0 0 0-1.305.243 1.85 1.85 0 0 0-.703.462 1.85 1.85 0 0 0-.446.686v.001a3.9 3.9 0 0 0-.242 1.305l-.001.026c-.04.866-.048 1.118-.048 3.354s.008 2.488.048 3.355v.025c.006.445.088.887.243 1.305q.11.294.307.535l.14.152.015.016c.192.198.427.35.685.446h.001c.419.155.86.237 1.306.242l.026.001c.866.04 1.118.048 3.354.048s2.488-.008 3.355-.048h.025a3.9 3.9 0 0 0 1.305-.243 2.03 2.03 0 0 0 1.149-1.15c.155-.418.237-.859.242-1.304l.001-.026c.04-.866.048-1.118.048-3.354s-.008-2.488-.048-3.354V6.62a3.9 3.9 0 0 0-.243-1.305l-.083-.19a1.9 1.9 0 0 0-.379-.513 1.85 1.85 0 0 0-.687-.446 3.9 3.9 0 0 0-1.305-.242l-.026-.001c-.866-.04-1.118-.048-3.354-.048m-.744 2.386a3.814 3.814 0 1 1 1.488 7.48 3.814 3.814 0 0 1-1.488-7.48m1.629 1.602a2.312 2.312 0 1 0-1.768 4.274 2.312 2.312 0 0 0 1.768-4.274m3.34-3.039a1.017 1.017 0 0 1 1.016 1.015 1.014 1.014 0 0 1-1.733.718 1.015 1.015 0 0 1 .718-1.733"/></svg>
